images/proton.svg

<svg height="250" viewBox="0 0 250 250" width="250" xmlns="http://www.w3.org/2000/svg" xmlns:xlink="http://www.w3.org/1999/xlink"><linearGradient id="a" gradientUnits="userSpaceOnUse" x1="10.16975" x2="243.05975" y1="242.70425" y2="318.53175"><stop offset="0" stop-color="#7543e3"/><stop offset="1" stop-color="#582acb"/></linearGradient><path d="m125 0c69.035156 0 125 55.964844 125 125s-55.964844 125-125 125-125-55.964844-125-125 55.964844-125 125-125zm0 0" fill="url(#a)"/><path d="m125.007812 31.25c12.046876 0 22.4375 12.5625 29.28125 32.976562-2.761718.773438-5.585937 1.636719-8.4375 2.597657-5.6875-16.886719-13.488281-26.824219-20.84375-26.824219-8.289062 0-17.128906 12.601562-22.890624 33.550781 2.25.730469 4.523437 1.503907 6.839843 2.363281 5.222657 1.929688 10.613281 4.203126 16.105469 6.78125.3125-.144531.628906-.304687.941406-.445312 3.523438-1.625 7.019532-3.125 10.476563-4.5.425781-.164062.835937-.324219 1.246093-.488281 10.363282-4.023438 20.382813-6.910157 29.554688-8.4375 19.746094-3.300781 33.632812.113281 39.085938 9.613281 5.460937 9.5 1.464843 23.289062-11.25 38.8125-.734376.886719-1.480469 1.789062-2.265626 2.675781-1.890624-2.113281-3.90625-4.226562-6.058593-6.339843 11.222656-13.074219 15.640625-24.5 12.03125-30.773438-3.410157-5.9375-14.660157-7.9375-30.113281-5.363281-3.300782.554687-6.734376 1.300781-10.261719 2.222656.503906 2.324219.976562 4.695313 1.390625 7.152344.953125 5.5 1.691406 11.320312 2.214844 17.378906 2.714843 1.917969 5.367187 3.867187 7.914062 5.847656 9.980469 7.761719 18.550781 15.898438 25.148438 23.949219 12.714843 15.523438 16.710937 29.3125 11.25 38.8125-4.097657 7.136719-12.957032 10.835938-25.484376 10.835938-4.144531 0-8.6875-.398438-13.601562-1.222657-1.269531-.214843-2.566406-.449219-3.871094-.714843.785156-2.710938 1.507813-5.546876 2.164063-8.484376 1.058593.210938 2.105469.398438 3.136719.574219 15.445312 2.574219 26.703124.574219 30.113281-5.363281 4.144531-7.214844-2.328125-21.242188-17.546875-36.757812-1.519532 1.394531-3.082032 2.78125-4.699219 4.15625-.238281.203124-.488281.414062-.722656.601562-4.308594 3.625-8.933594 7.183594-13.820313 10.636719-.238281 2.742187-.503906 5.457031-.828125 8.089843-4.753906 38.449219-18.738281 64.835938-36.199219 64.835938-12.019531 0-22.398437-12.523438-29.242187-32.886719 2.75-.75 5.5625-1.625 8.4375-2.601562 5.6875 16.839843 13.464844 26.738281 20.804687 26.738281 8.289063 0 17.15625-12.644531 22.921876-33.648438-2.261719-.722656-4.542969-1.496093-6.84375-2.351562-5.257813-1.921875-10.625-4.171875-16.027344-6.6875-.117188.054688-.234375.109375-.347656.164062-3.050782 1.421876-6.046876 2.75-9.011719 3.972657-.460938.1875-.90625.375-1.355469.539062-17.046875 6.898438-32.613281 10.472657-44.996094 10.472657-12.332031 0-21.476562-3.546876-25.707031-10.898438-6.050781-10.523438-.324219-25.9375 13.996094-42.1875l6.085937 6.449219c-11.585937 13.324219-16.1875 25-12.53125 31.363281 4.140625 7.203125 19.425782 8.597656 40.363282 3.136719-.492188-2.320313-.960938-4.683594-1.375-7.136719-.945313-5.492188-1.679688-11.296875-2.207032-17.34375-2.726562-1.917969-5.382812-3.851562-7.898437-5.792969-24.265625-18.75-38.824219-38.664062-38.824219-53.488281 0-3.425781.785156-6.574219 2.390625-9.375 6.019531-10.460938 22.011719-13.226562 43.003906-9-.796875 2.75-1.53125 5.625-2.191406 8.601562-17.257813-3.425781-29.613281-1.589843-33.261719 4.773438-4.136718 7.203125 2.308594 21.203125 17.480469 36.695312 1.949219-1.777343 3.96875-3.535156 6.089844-5.28125 4.089843-3.398437 8.511719-6.769531 13.222656-10.085937.238281-2.75.507813-5.46875.835937-8.101563 4.753907-38.414062 18.742188-64.789062 36.1875-64.789062zm27.5625 122.160156c-2.09375 1.332032-4.214843 2.652344-6.382812 3.941406-.734375.4375-1.46875.859376-2.203125 1.285157-2.574219 1.488281-5.152344 2.925781-7.703125 4.277343-.375.203126-.75.386719-1.128906.589844 2.648437 1.125 5.273437 2.175782 7.875 3.144532 2.347656.878906 4.664062 1.683593 6.960937 2.4375.511719-2.394532.984375-4.867188 1.414063-7.421876.445312-2.65625.820312-5.429687 1.167968-8.253906zm-55.152343-.011718c.367187 2.964843.785156 5.84375 1.257812 8.625.414063 2.433593.875 4.773437 1.363281 7.054687 1.410157-.457031 2.832032-.9375 4.277344-1.453125.433594-.148438.882813-.3125 1.316406-.476562 2.976563-1.074219 6.023438-2.261719 9.132813-3.597657.03125-.011719.058594-.027343.085937-.035156-2.941406-1.550781-5.886718-3.179687-8.820312-4.878906-.148438-.085938-.308594-.175781-.460938-.273438-2.800781-1.628906-5.503906-3.289062-8.152343-4.964843zm27.59375-61.011719c-2.976563 1.457031-5.964844 2.984375-8.949219 4.613281-1.890625 1.023438-3.785156 2.085938-5.675781 3.1875-4.957031 2.875-9.625 5.828125-14.027344 8.8125-.179687 2.550781-.335937 5.132812-.433594 7.789062-.109375 2.886719-.160156 5.835938-.160156 8.835938 0 5.753906.210937 11.292969.585937 16.617188 2.542969 1.726562 5.15625 3.4375 7.886719 5.121093 2.003907 1.25 4.046875 2.488281 6.148438 3.699219 4.871093 2.824219 9.761719 5.421875 14.628906 7.796875.316406-.152344.625-.292969.9375-.445313 3.238281-1.601562 6.507813-3.328124 9.832031-5.175781 1.28125-.699219 2.5625-1.425781 3.84375-2.175781 4.957032-2.871094 9.628906-5.824219 14.027344-8.808594.179688-2.550781.335938-5.140625.433594-7.792968.113281-2.886719.160156-5.835938.160156-8.835938 0-5.75-.210938-11.289062-.582031-16.613281-2.535157-1.722657-5.148438-3.433594-7.878907-5.125-2.003906-1.25-4.054687-2.472657-6.160156-3.699219-4.957031-2.875-9.835937-5.460938-14.617187-7.800781zm-.003907 21.988281c6.1875 0 11.199219 5.035156 11.199219 11.25s-5.011719 11.25-11.199219 11.25c-6.183593 0-11.199218-5.035156-11.199218-11.25s5.015625-11.25 11.199218-11.25zm37.757813 1.167969c.128906 3.304687.195313 6.664062.195313 10.082031 0 .824219 0 1.648438-.011719 2.476562-.023438 2.582032-.101563 5.125-.203125 7.640626 2.242187-1.703126 4.398437-3.410157 6.449218-5.117188.261719-.210938.511719-.414062.761719-.625 1.738281-1.464844 3.402344-2.921875 5.007813-4.375-1.46875-1.328125-2.988282-2.664062-4.574219-4-2.402344-2.039062-4.957031-4.0625-7.625-6.082031zm-75.496094-.023438c-2.015625 1.53125-3.964843 3.0625-5.828125 4.59375-2.246094 1.832031-4.371094 3.671875-6.394531 5.515625 1.46875 1.332032 2.992187 2.667969 4.582031 4.007813 2.398438 2.027343 4.957032 4.050781 7.625 6.070312-.128906-3.300781-.199218-6.664062-.199218-10.082031 0-.824219 0-1.648438.027343-2.460938.015625-2.582031.089844-5.121093.1875-7.644531zm62.707031-33.351562c-1.160156.378906-2.328124.769531-3.503906 1.183593-3.457031 1.199219-6.96875 2.5625-10.527344 4.0625-.25.101563-.503906.21875-.753906.324219 2.914063 1.542969 5.847656 3.164063 8.792969 4.875.148437.085938.3125.175781.460937.273438 2.78125 1.609375 5.488282 3.28125 8.15625 4.972656-.367187-2.96875-.789062-5.851563-1.261718-8.632813-.417969-2.429687-.878906-4.773437-1.363282-7.058593zm-49.945312 0c-.503906 2.390625-.976562 4.855469-1.402344 7.40625-.453125 2.660156-.835937 5.421875-1.1875 8.246093 2.660156-1.6875 5.386719-3.347656 8.191406-4.984374.136719-.074219.261719-.148438.398438-.222657 2.9375-1.703125 5.886719-3.324219 8.835938-4.875-2.667969-1.132812-5.296876-2.179687-7.863282-3.136719-2.378906-.902343-4.695312-1.695312-6.972656-2.433593zm0 0" fill="#fff" fill-rule="evenodd"/></svg>

<svg xmlns="http://www.w3.org/2000/svg" xmlns:xlink="http://www.w3.org/1999/xlink" width="250px" height="250px" viewBox="0 0 250 250" version="1.1">
<defs>
<linearGradient id="linear0" gradientUnits="userSpaceOnUse" x1="0.0406794" y1="0.970817" x2="0.972239" y2="1.274127" gradientTransform="matrix(250,0,0,250,0,0)">
<stop offset="0" style="stop-color:rgb(45.882353%,26.274511%,89.019608%);stop-opacity:1;"/>
<stop offset="1" style="stop-color:rgb(34.509805%,16.470589%,79.607844%);stop-opacity:1;"/>
</linearGradient>
</defs>
<g id="surface1">
<path style=" stroke:none;fill-rule:nonzero;fill:url(#linear0);" d="M 125 0 C 194.035156 0 250 55.964844 250 125 C 250 194.035156 194.035156 250 125 250 C 55.964844 250 0 194.035156 0 125 C 0 55.964844 55.964844 0 125 0 Z M 125 0 "/>
<path style=" stroke:none;fill-rule:evenodd;fill:rgb(100%,100%,100%);fill-opacity:1;" d="M 125.007812 31.25 C 137.054688 31.25 147.445312 43.8125 154.289062 64.226562 C 151.527344 65 148.703125 65.863281 145.851562 66.824219 C 140.164062 49.9375 132.363281 40 125.007812 40 C 116.71875 40 107.878906 52.601562 102.117188 73.550781 C 104.367188 74.28125 106.640625 75.054688 108.957031 75.914062 C 114.179688 77.84375 119.570312 80.117188 125.0625 82.695312 C 125.375 82.550781 125.691406 82.390625 126.003906 82.25 C 129.527344 80.625 133.023438 79.125 136.480469 77.75 C 136.90625 77.585938 137.316406 77.425781 137.726562 77.261719 C 148.089844 73.238281 158.109375 70.351562 167.28125 68.824219 C 187.027344 65.523438 200.914062 68.9375 206.367188 78.4375 C 211.828125 87.9375 207.832031 101.726562 195.117188 117.25 C 194.382812 118.136719 193.636719 119.039062 192.851562 119.925781 C 190.960938 117.8125 188.945312 115.699219 186.792969 113.585938 C 198.015625 100.511719 202.433594 89.085938 198.824219 82.8125 C 195.414062 76.875 184.164062 74.875 168.710938 77.449219 C 165.410156 78.003906 161.976562 78.75 158.449219 79.671875 C 158.953125 81.996094 159.425781 84.367188 159.839844 86.824219 C 160.792969 92.324219 161.53125 98.144531 162.054688 104.203125 C 164.769531 106.121094 167.421875 108.070312 169.96875 110.050781 C 179.949219 117.8125 188.519531 125.949219 195.117188 134 C 207.832031 149.523438 211.828125 163.3125 206.367188 172.8125 C 202.269531 179.949219 193.410156 183.648438 180.882812 183.648438 C 176.738281 183.648438 172.195312 183.25 167.28125 182.425781 C 166.011719 182.210938 164.714844 181.976562 163.410156 181.710938 C 164.195312 179 164.917969 176.164062 165.574219 173.226562 C 166.632812 173.4375 167.679688 173.625 168.710938 173.800781 C 184.15625 176.375 195.414062 174.375 198.824219 168.4375 C 202.96875 161.222656 196.496094 147.195312 181.277344 131.679688 C 179.757812 133.074219 178.195312 134.460938 176.578125 135.835938 C 176.339844 136.039062 176.089844 136.25 175.855469 136.4375 C 171.546875 140.0625 166.921875 143.621094 162.035156 147.074219 C 161.796875 149.816406 161.53125 152.53125 161.207031 155.164062 C 156.453125 193.613281 142.46875 220 125.007812 220 C 112.988281 220 102.609375 207.476562 95.765625 187.113281 C 98.515625 186.363281 101.328125 185.488281 104.203125 184.511719 C 109.890625 201.351562 117.667969 211.25 125.007812 211.25 C 133.296875 211.25 142.164062 198.605469 147.929688 177.601562 C 145.667969 176.878906 143.386719 176.105469 141.085938 175.25 C 135.828125 173.328125 130.460938 171.078125 125.058594 168.5625 C 124.941406 168.617188 124.824219 168.671875 124.710938 168.726562 C 121.660156 170.148438 118.664062 171.476562 115.699219 172.699219 C 115.238281 172.886719 114.792969 173.074219 114.34375 173.238281 C 97.296875 180.136719 81.730469 183.710938 69.347656 183.710938 C 57.015625 183.710938 47.871094 180.164062 43.640625 172.8125 C 37.589844 162.289062 43.316406 146.875 57.636719 130.625 L 63.722656 137.074219 C 52.136719 150.398438 47.535156 162.074219 51.191406 168.4375 C 55.332031 175.640625 70.617188 177.035156 91.554688 171.574219 C 91.0625 169.253906 90.59375 166.890625 90.179688 164.4375 C 89.234375 158.945312 88.5 153.140625 87.972656 147.09375 C 85.246094 145.175781 82.589844 143.242188 80.074219 141.300781 C 55.808594 122.550781 41.25 102.636719 41.25 87.8125 C 41.25 84.386719 42.035156 81.238281 43.640625 78.4375 C 49.660156 67.976562 65.652344 65.210938 86.644531 69.4375 C 85.847656 72.1875 85.113281 75.0625 84.453125 78.039062 C 67.195312 74.613281 54.839844 76.449219 51.191406 82.8125 C 47.054688 90.015625 53.5 104.015625 68.671875 119.507812 C 70.621094 117.730469 72.640625 115.972656 74.761719 114.226562 C 78.851562 110.828125 83.273438 107.457031 87.984375 104.140625 C 88.222656 101.390625 88.492188 98.671875 88.820312 96.039062 C 93.574219 57.625 107.5625 31.25 125.007812 31.25 Z M 152.570312 153.410156 C 150.476562 154.742188 148.355469 156.0625 146.1875 157.351562 C 145.453125 157.789062 144.71875 158.210938 143.984375 158.636719 C 141.410156 160.125 138.832031 161.5625 136.28125 162.914062 C 135.90625 163.117188 135.53125 163.300781 135.152344 163.503906 C 137.800781 164.628906 140.425781 165.679688 143.027344 166.648438 C 145.375 167.527344 147.691406 168.332031 149.988281 169.085938 C 150.5 166.691406 150.972656 164.21875 151.402344 161.664062 C 151.847656 159.007812 152.222656 156.234375 152.570312 153.410156 Z M 97.417969 153.398438 C 97.785156 156.363281 98.203125 159.242188 98.675781 162.023438 C 99.089844 164.457031 99.550781 166.796875 100.039062 169.078125 C 101.449219 168.621094 102.871094 168.140625 104.316406 167.625 C 104.75 167.476562 105.199219 167.3125 105.632812 167.148438 C 108.609375 166.074219 111.65625 164.886719 114.765625 163.550781 C 114.796875 163.539062 114.824219 163.523438 114.851562 163.515625 C 111.910156 161.964844 108.964844 160.335938 106.03125 158.636719 C 105.882812 158.550781 105.722656 158.460938 105.570312 158.363281 C 102.769531 156.734375 100.066406 155.074219 97.417969 153.398438 Z M 125.011719 92.386719 C 122.035156 93.84375 119.046875 95.371094 116.0625 97 C 114.171875 98.023438 112.277344 99.085938 110.386719 100.1875 C 105.429688 103.0625 100.761719 106.015625 96.359375 109 C 96.179688 111.550781 96.023438 114.132812 95.925781 116.789062 C 95.816406 119.675781 95.765625 122.625 95.765625 125.625 C 95.765625 131.378906 95.976562 136.917969 96.351562 142.242188 C 98.894531 143.96875 101.507812 145.679688 104.238281 147.363281 C 106.242188 148.613281 108.285156 149.851562 110.386719 151.0625 C 115.257812 153.886719 120.148438 156.484375 125.015625 158.859375 C 125.332031 158.707031 125.640625 158.566406 125.953125 158.414062 C 129.191406 156.8125 132.460938 155.085938 135.785156 153.238281 C 137.066406 152.539062 138.347656 151.8125 139.628906 151.0625 C 144.585938 148.191406 149.257812 145.238281 153.65625 142.253906 C 153.835938 139.703125 153.992188 137.113281 154.089844 134.460938 C 154.203125 131.574219 154.25 128.625 154.25 125.625 C 154.25 119.875 154.039062 114.335938 153.667969 109.011719 C 151.132812 107.289062 148.519531 105.578125 145.789062 103.886719 C 143.785156 102.636719 141.734375 101.414062 139.628906 100.1875 C 134.671875 97.3125 129.792969 94.726562 125.011719 92.386719 Z M 125.007812 114.375 C 131.195312 114.375 136.207031 119.410156 136.207031 125.625 C 136.207031 131.839844 131.195312 136.875 125.007812 136.875 C 118.824219 136.875 113.808594 131.839844 113.808594 125.625 C 113.808594 119.410156 118.824219 114.375 125.007812 114.375 Z M 162.765625 115.542969 C 162.894531 118.847656 162.960938 122.207031 162.960938 125.625 C 162.960938 126.449219 162.960938 127.273438 162.949219 128.101562 C 162.925781 130.683594 162.847656 133.226562 162.746094 135.742188 C 164.988281 134.039062 167.144531 132.332031 169.195312 130.625 C 169.457031 130.414062 169.707031 130.210938 169.957031 130 C 171.695312 128.535156 173.359375 127.078125 174.964844 125.625 C 173.496094 124.296875 171.976562 122.960938 170.390625 121.625 C 167.988281 119.585938 165.433594 117.5625 162.765625 115.542969 Z M 87.269531 115.519531 C 85.253906 117.050781 83.304688 118.582031 81.441406 120.113281 C 79.195312 121.945312 77.070312 123.785156 75.046875 125.628906 C 76.515625 126.960938 78.039062 128.296875 79.628906 129.636719 C 82.027344 131.664062 84.585938 133.6875 87.253906 135.707031 C 87.125 132.40625 87.054688 129.042969 87.054688 125.625 C 87.054688 124.800781 87.054688 123.976562 87.082031 123.164062 C 87.097656 120.582031 87.171875 118.042969 87.269531 115.519531 Z M 149.976562 82.167969 C 148.816406 82.546875 147.648438 82.9375 146.472656 83.351562 C 143.015625 84.550781 139.503906 85.914062 135.945312 87.414062 C 135.695312 87.515625 135.441406 87.632812 135.191406 87.738281 C 138.105469 89.28125 141.039062 90.902344 143.984375 92.613281 C 144.132812 92.699219 144.296875 92.789062 144.445312 92.886719 C 147.226562 94.496094 149.933594 96.167969 152.601562 97.859375 C 152.234375 94.890625 151.8125 92.007812 151.339844 89.226562 C 150.921875 86.796875 150.460938 84.453125 149.976562 82.167969 Z M 100.03125 82.167969 C 99.527344 84.558594 99.054688 87.023438 98.628906 89.574219 C 98.175781 92.234375 97.792969 94.996094 97.441406 97.820312 C 100.101562 96.132812 102.828125 94.472656 105.632812 92.835938 C 105.769531 92.761719 105.894531 92.6875 106.03125 92.613281 C 108.96875 90.910156 111.917969 89.289062 114.867188 87.738281 C 112.199219 86.605469 109.570312 85.558594 107.003906 84.601562 C 104.625 83.699219 102.308594 82.90625 100.03125 82.167969 Z M 100.03125 82.167969 "/>
</g>
</svg>
